icons/editor-paint-bucket-1-filled.svg

<svg width="25" height="24" viewBox="0 0 25 24" fill="none" xmlns="http://www.w3.org/2000/svg">
<g id="paint-bucket-01">
<path id="Icon" d="M11.4494 2.40039L11.9622 2.91325M4.10041 13.0397H21.0966M11.9622 2.91325L12.7063 3.65737C12.7063 3.65737 4.95139 11.268 4.79382 11.4255C3.86821 12.3511 3.86821 13.8518 4.79382 14.7775L10.9225 20.9062C11.8481 21.8318 13.3489 21.8318 14.2745 20.9062L20.4032 14.7775C21.2887 13.892 21.3271 12.4802 20.5184 11.5491C20.4755 11.4547 20.4152 11.3662 20.3375 11.2885L11.9622 2.91325Z" stroke="black" stroke-width="2" stroke-linecap="round" stroke-linejoin="round"/>
</g>
</svg>

<svg xmlns="http://www.w3.org/2000/svg" width="25" height="24" fill="none" viewBox="0 0 25 24"><path stroke="currentColor" stroke-linecap="round" stroke-linejoin="round" stroke-width="2" d="m11.45 2.4.512.513M4.1 13.04h16.997M11.962 2.913l.744.744s-7.755 7.611-7.912 7.768a2.37 2.37 0 0 0 0 3.352l6.129 6.13a2.37 2.37 0 0 0 3.351 0l6.13-6.13a2.37 2.37 0 0 0 .114-3.228.9.9 0 0 0-.18-.26z"/></svg>
